X:304
T: ICH NEHM MEIN GLAESCHEN IN DIE HAND
N: F0528A
O: Europa, Mitteleuropa, Deutschland
R: Studenten -, Trink - Lied
M: 2/4
L: 1/8
K: C
G, | CCCC | B,A,G,2
A,A,B,B, | C2C,
G, | CCCC | B,A,G,2
A,A,B,B, | C2C,z
EEEE | FFF2
DDDD | GGG2
ECDB, | C2C,2
EEEE | FFF2
DDDD | GGG2
ECDB, | C2C,

